!!!COM: Mozart
!!!OTL: 8 Variationen uber das Lied "Ein Weib ist das herrlichste Ding"
!!!Variation: Variation 2 c
**function	**harm	**kern	**kern
*	*	*clefF4	*clefG2
*	*	*k[b-]	*k[b-]
*M3/4	*M3/4	*M3/4	*M3/4
*F:	*F:	*F:	*F:
*	*	*	*^
4D	4V	4r	4g'	4e
=109	=109	=109	=109	=109
2.D	2.V	8CCL	(4e	2c
.	.	(8CJ	.	.
.	.	8EL)	4g)	.
.	.	8C'J	.	.
.	.	8GG'L	4g'	4e
.	.	8EE'J	.	.
=110	=110	=110	=110	=110
2.D	2.V	8CCL	(4cc	2e
.	.	(8CJ	.	.
.	.	8EL)	4g)	.
.	.	8C'J	.	.
.	.	8GG'L	4g'	4e
.	.	8EE'J	.	.
=111	=111	=111	=111	=111
2.D	2.V	8CCL	(4e	2c
.	.	(8CJ	.	.
.	.	8EL)	4g)	.
.	.	8C'J	.	.
.	.	8GG'L	4g'	4e
.	.	8EE'J	.	.
=112	=112	=112	=112	=112
2.D	2.V	4CC'	4cc'	4e
.	.	4C'	4r	4r
.	.	4r	4gg'	4ee
=113	=113	=113	=113	=113
2.D	2.V	8CL	(4ee	2cc
.	.	(8cJ	.	.
.	.	8eL)	4gg)	.
.	.	8c'J	.	.
.	.	8G'L	4gg'	4ee
.	.	8E'J	.	.
=114	=114	=114	=114	=114
2.D	2.V	8CL	(4ccc	2ee
.	.	(8cJ	.	.
.	.	8eL)	4gg)	.
.	.	8c'J	.	.
.	.	8G'L	4gg'	4ee
.	.	8E'J	.	.
=115	=115	=115	=115	=115
2.D	2.V	8CL	(4ee	2cc
.	.	(8cJ	.	.
.	.	8eL)	4gg)	.
.	.	8c'J	.	.
.	.	8G'L	4gg'	4ee
.	.	8E'J	.	.
=116	=116	=116	=116	=116
2.D	2.V	4C'	4ccc'	4ee
*	*	*	*v	*v
.	.	4c'	4r
.	.	(8CCL	4c
.	.	8CJ)	.
=117	=117	=117	=117
2.D	2.V	(8CCL	(4c
.	.	8CJ	.
.	.	8DDL	4d
.	.	8DJ	.
.	.	8EEL	4e)
.	.	8EJ)	.
=118	=118	=118	=118
2.D	2.I	(8FFL	(8.fL
.	.	8FJ	.
.	.	.	32gLL
.	.	.	32fJJJ
.	.	8EEL	4e
.	.	8EJ	.
.	.	8FFL	4f)
.	.	8FJ)	.
=119	=119	=119	=119
2.D	2.vi	(8DDL	(4d
.	.	8DJ	.
.	.	8EEL	4e
.	.	8EJ	.
.	.	8FFL	4f)
.	.	8FJ)	.
=120	=120	=120	=120
2.D	2.ii	(8GGL	(8.gL
.	.	8GJ	.
.	.	.	32aLL
.	.	.	32gJJJ
.	.	8FF#L	4f#
.	.	8F#J	.
.	.	8GGL	4g)
.	.	8GJ)	.
=121	=121	=121	=121
2.D	2.viio	(8EEL	(4e
.	.	8EJ	.
.	.	8FFL	4f
.	.	8FJ	.
.	.	8GGL	4g)
.	.	8GJ)	.
=122	=122	=122	=122
2.D	2.iii	(8AAL	(8.aL
.	.	8AJ	.
.	.	.	32b-LL
.	.	.	32aJJJ
.	.	8GG#L	4g#
.	.	8G#J	.
.	.	8AAL	4a)
.	.	8AJ)	.
=123	=123	=123	=123
*	*	*	*^
2.D	2.V7/V	(8GGL	(8.bL	2.d 2.f
.	.	8GJ	.	.
.	.	.	32ccLL	.
.	.	.	32bJJJ	.
.	.	8FF#L	4a	.
.	.	8F#J	.	.
.	.	8GGL	4b)	.
.	.	8GJ)	.	.
=124	=124	=124	=124	=124
2.D	2.V	[4CC;	4cc;	4e
*	*	*	*v	*v
.	.	(12CCL]	4r
.	.	12EE	.
.	.	12GGJ	.
.	.	12CL	4r
.	.	12E	.
.	.	12GJ	.
*	*	*clefG2	*
=125	=125	=125	=125
2.D	2.V7	8cL	2.r
.	.	8eJ	.
.	.	8gL	.
.	.	8aJ	.
.	.	8ccL	.
.	.	8b-J	.
=126	=126	=126	=126
2.D	2.V7	8aL	2.r
.	.	8gJ	.
.	.	8fL	.
.	.	8eJ	.
.	.	8dL	.
.	.	8cJ	.
*	*	*clefF4	*
=127	=127	=127	=127
2D	2V7	8BL	2r
.	.	8B-J	.
.	.	8AL	.
.	.	8cJ	.
*-	*-	*-	*-
